svg/color/kncl.svg

<?xml version="1.0" encoding="UTF-8" ?>
<!DOCTYPE svg PUBLIC "-//W3C//DTD SVG 1.1//EN" "http://www.w3.org/Graphics/SVG/1.1/DTD/svg11.dtd">
<svg width="250pt" height="249pt" viewBox="0 0 250 249" version="1.1" xmlns="http://www.w3.org/2000/svg">
<g id="#ffffffff">
<path fill="#ffffff" opacity="1.00" d=" M 0.00 0.00 L 117.58 0.00 C 85.94 2.11 55.20 16.32 33.72 39.77 C 12.98 61.86 0.98 91.79 0.49 122.07 C 0.01 148.00 7.81 174.03 22.71 195.29 C 38.60 218.17 62.33 235.56 89.08 243.49 C 116.02 251.64 145.73 250.32 171.81 239.71 C 197.27 229.51 219.05 210.55 232.82 186.86 C 247.29 162.11 252.79 132.24 247.97 103.98 C 242.78 71.58 223.98 41.70 197.15 22.86 C 178.32 9.33 155.61 1.69 132.55 0.00 L 250.00 0.00 L 250.00 249.00 L 0.00 249.00 L 0.00 0.00 Z" />
<path fill="#ffffff" opacity="1.00" d=" M 128.14 50.13 C 128.17 47.28 131.81 46.44 133.65 48.19 C 146.60 58.07 159.60 67.90 172.50 77.83 C 172.75 79.70 172.71 81.82 170.61 82.55 C 151.89 93.38 133.07 104.05 114.35 114.89 C 118.69 93.26 123.55 71.71 128.14 50.13 Z" />
<path fill="#ffffff" opacity="1.00" d=" M 112.37 51.39 C 113.92 49.63 117.14 50.68 117.50 52.93 C 117.56 54.69 117.08 56.41 116.74 58.12 C 112.09 79.42 107.57 100.74 102.93 122.04 C 102.13 124.57 103.08 127.12 103.56 129.61 C 108.14 150.73 112.69 171.86 117.21 193.00 C 117.65 194.69 117.92 197.13 115.84 197.82 C 114.25 199.04 112.65 197.54 111.37 196.67 C 99.08 187.27 86.75 177.91 74.45 168.53 C 72.37 167.01 70.76 164.69 70.82 162.02 C 70.77 138.35 70.84 114.68 70.79 91.01 C 70.85 88.48 70.43 85.77 71.64 83.42 C 72.57 81.54 74.38 80.35 75.98 79.08 C 88.14 69.89 100.19 60.55 112.37 51.39 Z" />
<path fill="#ffffff" opacity="1.00" d=" M 117.01 124.26 C 136.71 113.03 156.34 101.69 176.03 90.46 C 177.43 91.17 179.64 91.87 179.33 93.90 C 179.33 114.29 179.42 134.69 179.28 155.07 C 179.29 157.74 175.80 158.55 173.97 157.06 C 155.02 146.06 135.84 135.45 117.01 124.26 Z" />
<path fill="#ffffff" opacity="1.00" d=" M 114.26 134.00 C 133.25 144.44 151.90 155.49 170.75 166.19 C 172.60 166.84 173.08 168.94 172.42 170.64 C 171.23 172.07 169.63 173.09 168.18 174.23 C 156.65 182.97 145.17 191.79 133.64 200.52 C 132.31 201.93 129.82 201.89 128.73 200.21 C 127.92 198.23 127.64 196.08 127.17 194.00 C 122.89 174.00 118.54 154.01 114.26 134.00 Z" />
</g>
<g id="#6c8275ff">
<path fill="#6c8275" opacity="1.00" d=" M 117.58 0.00 L 132.55 0.00 C 155.61 1.69 178.32 9.33 197.15 22.86 C 223.98 41.70 242.78 71.58 247.97 103.98 C 252.79 132.24 247.29 162.11 232.82 186.86 C 219.05 210.55 197.27 229.51 171.81 239.71 C 145.73 250.32 116.02 251.64 89.08 243.49 C 62.33 235.56 38.60 218.17 22.71 195.29 C 7.81 174.03 0.01 148.00 0.49 122.07 C 0.98 91.79 12.98 61.86 33.72 39.77 C 55.20 16.32 85.94 2.11 117.58 0.00 M 128.14 50.13 C 123.55 71.71 118.69 93.26 114.35 114.89 C 133.07 104.05 151.89 93.38 170.61 82.55 C 172.71 81.82 172.75 79.70 172.50 77.83 C 159.60 67.90 146.60 58.07 133.65 48.19 C 131.81 46.44 128.17 47.28 128.14 50.13 M 112.37 51.39 C 100.19 60.55 88.14 69.89 75.98 79.08 C 74.38 80.35 72.57 81.54 71.64 83.42 C 70.43 85.77 70.85 88.48 70.79 91.01 C 70.84 114.68 70.77 138.35 70.82 162.02 C 70.76 164.69 72.37 167.01 74.45 168.53 C 86.75 177.91 99.08 187.27 111.37 196.67 C 112.65 197.54 114.25 199.04 115.84 197.82 C 117.92 197.13 117.65 194.69 117.21 193.00 C 112.69 171.86 108.14 150.73 103.56 129.61 C 103.08 127.12 102.13 124.57 102.93 122.04 C 107.57 100.74 112.09 79.42 116.74 58.12 C 117.08 56.41 117.56 54.69 117.50 52.93 C 117.14 50.68 113.92 49.63 112.37 51.39 M 117.01 124.26 C 135.84 135.45 155.02 146.06 173.97 157.06 C 175.80 158.55 179.29 157.74 179.28 155.07 C 179.42 134.69 179.33 114.29 179.33 93.90 C 179.64 91.87 177.43 91.17 176.03 90.46 C 156.34 101.69 136.71 113.03 117.01 124.26 M 114.26 134.00 C 118.54 154.01 122.89 174.00 127.17 194.00 C 127.64 196.08 127.92 198.23 128.73 200.21 C 129.82 201.89 132.31 201.93 133.64 200.52 C 145.17 191.79 156.65 182.97 168.18 174.23 C 169.63 173.09 171.23 172.07 172.42 170.64 C 173.08 168.94 172.60 166.84 170.75 166.19 C 151.90 155.49 133.25 144.44 114.26 134.00 Z" />
</g>
</svg>

<?xml version="1.0" encoding="utf-8"?>
<!-- Generator: Adobe Illustrator 26.0.3, SVG Export Plug-In . SVG Version: 6.00 Build 0)  -->
<svg version="1.1" id="Layer_1" xmlns="http://www.w3.org/2000/svg" xmlns:xlink="http://www.w3.org/1999/xlink" x="0px" y="0px"
	 viewBox="0 0 250 249" style="enable-background:new 0 0 250 249;" xml:space="preserve">
<style type="text/css">
	.st0{fill:#FFFFFF;}
	.st1{fill:#6C8275;}
</style>
<g id="_x23_ffffffff">
	<path class="st0" d="M128.1,50.1c0-2.9,3.7-3.7,5.5-1.9c13,9.9,26,19.7,38.9,29.6c0.2,1.9,0.2,4-1.9,4.7
		c-18.7,10.8-37.5,21.5-56.3,32.3C118.7,93.3,123.6,71.7,128.1,50.1z"/>
	<path class="st0" d="M112.4,51.4c1.5-1.8,4.8-0.7,5.1,1.5c0.1,1.8-0.4,3.5-0.8,5.2c-4.7,21.3-9.2,42.6-13.8,63.9
		c-0.8,2.5,0.2,5.1,0.6,7.6c4.6,21.1,9.1,42.2,13.7,63.4c0.4,1.7,0.7,4.1-1.4,4.8c-1.6,1.2-3.2-0.3-4.5-1.2
		c-12.3-9.4-24.6-18.8-36.9-28.1c-2.1-1.5-3.7-3.8-3.6-6.5c-0.1-23.7,0-47.3,0-71c0.1-2.5-0.4-5.2,0.8-7.6c0.9-1.9,2.7-3.1,4.3-4.3
		C88.1,69.9,100.2,60.5,112.4,51.4z"/>
	<path class="st0" d="M117,124.3c19.7-11.2,39.3-22.6,59-33.8c1.4,0.7,3.6,1.4,3.3,3.4c0,20.4,0.1,40.8-0.1,61.2
		c0,2.7-3.5,3.5-5.3,2C155,146.1,135.8,135.4,117,124.3z"/>
	<path class="st0" d="M114.3,134c19,10.4,37.6,21.5,56.5,32.2c1.9,0.6,2.3,2.8,1.7,4.4c-1.2,1.4-2.8,2.4-4.2,3.6
		c-11.5,8.7-23,17.6-34.5,26.3c-1.3,1.4-3.8,1.4-4.9-0.3c-0.8-2-1.1-4.1-1.6-6.2C122.9,174,118.5,154,114.3,134z"/>
</g>
<g id="_x23_6c8275ff">
	<path class="st1" d="M117.6,0h15c23.1,1.7,45.8,9.3,64.6,22.9C224,41.7,242.8,71.6,248,104c4.8,28.3-0.7,58.1-15.1,82.9
		c-13.8,23.7-35.6,42.6-61,52.9c-26.1,10.6-55.8,11.9-82.7,3.8c-26.8-7.9-50.5-25.3-66.4-48.2C7.8,174,0,148,0.5,122.1
		C1,91.8,13,61.9,33.7,39.8C55.2,16.3,85.9,2.1,117.6,0 M128.1,50.1c-4.6,21.6-9.4,43.1-13.8,64.8c18.7-10.8,37.5-21.5,56.3-32.3
		c2.1-0.7,2.1-2.9,1.9-4.7c-12.9-9.9-25.9-19.8-38.9-29.6C131.8,46.4,128.2,47.3,128.1,50.1 M112.4,51.4
		C100.2,60.5,88.1,69.9,76,79.1c-1.6,1.3-3.4,2.5-4.3,4.3c-1.2,2.3-0.8,5.1-0.8,7.6c0,23.7,0,47.3,0,71c-0.1,2.7,1.6,5,3.6,6.5
		c12.3,9.4,24.6,18.7,36.9,28.1c1.3,0.9,2.9,2.4,4.5,1.2c2.1-0.7,1.8-3.1,1.4-4.8c-4.5-21.1-9.1-42.3-13.7-63.4
		c-0.5-2.5-1.4-5-0.6-7.6c4.6-21.3,9.2-42.6,13.8-63.9c0.3-1.7,0.8-3.4,0.8-5.2C117.1,50.7,113.9,49.6,112.4,51.4 M117,124.3
		c18.8,11.2,38,21.8,57,32.8c1.8,1.5,5.3,0.7,5.3-2c0.1-20.4,0.1-40.8,0.1-61.2c0.3-2-1.9-2.7-3.3-3.4
		C156.3,101.7,136.7,113,117,124.3 M114.3,134c4.3,20,8.6,40,12.9,60c0.5,2.1,0.8,4.2,1.6,6.2c1.1,1.7,3.6,1.7,4.9,0.3
		c11.5-8.7,23-17.6,34.5-26.3c1.5-1.1,3.1-2.2,4.2-3.6c0.7-1.7,0.2-3.8-1.7-4.4C151.9,155.5,133.2,144.4,114.3,134z"/>
</g>
</svg>
